X:96
T:Glasgow Gaelic Club, The 
C:Joe Buchanan's Scottish Tome - Page 123.2
I:123 2
R:Jig
Z:Carl Allison
L:1/8
M:6/8
K:D
c | "Bm"d>cB "A"c>BA | "Bm"B>cB B>cd | "A"c>BA c<eA | c<ea c>BA |
"Bm"d>cB "A"c>BA | "Bm"B>AB d2e | "D"f<af "A"e>dc | "Bm"d>BB B2 :|
c | "D"d>fa d>fa | d>fa f>ed | "A"c<eA "F#m"c<eA | "A"c<ea c>BA |
"D"d>cB "A"c>BA | "Bm"B>cB d2e | "D"f<af "F#m"e>dc | "Bm"d>BB B2 :|

